Custom/saxdx/face.svg

<svg xmlns="http://www.w3.org/2000/svg" width="224" height="112.4" viewBox="0 0 224 112.4">
  <g id="face" transform="translate(193 -340.7)">
    <g id="g42">
      <g id="g10">
        <g id="g6">
          <path id="path2" d="M-109.2,452a26.332,26.332,0,0,1-26.3-26.3,26.247,26.247,0,0,1,26.3-26.2A26.247,26.247,0,0,1-83,425.8,26.225,26.225,0,0,1-109.2,452Z" fill="#fff"/>
          <path id="path4" d="M-109.2,400.5a25.308,25.308,0,0,1,25.3,25.2A25.329,25.329,0,0,1-109.2,451a25.244,25.244,0,0,1-25.3-25.2,25.329,25.329,0,0,1,25.3-25.3m0-2a27.314,27.314,0,0,0-27.3,27.2A27.335,27.335,0,0,0-109.2,453,27.164,27.164,0,0,0-82,425.8a27.314,27.314,0,0,0-27.2-27.3Z" fill="#fff"/>
        </g>
        <path id="path8" d="M-109.2,406.9a18.949,18.949,0,0,0-18.9,18.9,18.949,18.949,0,0,0,18.9,18.9,18.949,18.949,0,0,0,18.9-18.9A18.949,18.949,0,0,0-109.2,406.9Zm0,34.9a15.983,15.983,0,0,1-16-16,15.983,15.983,0,0,1,16-16,16.047,16.047,0,0,1,16,16A16.047,16.047,0,0,1-109.2,441.8Z"/>
      </g>
      <g id="g20">
        <g id="g16">
          <path id="path12" d="M-165.8,452A26.225,26.225,0,0,1-192,425.8a26.247,26.247,0,0,1,26.3-26.2,26.311,26.311,0,0,1,26.3,26.2A26.4,26.4,0,0,1-165.8,452Z" fill="#fff"/>
          <path id="path14" d="M-165.7,400.5a25.308,25.308,0,0,1,25.3,25.2A25.329,25.329,0,0,1-165.7,451,25.244,25.244,0,0,1-191,425.8a25.329,25.329,0,0,1,25.3-25.3m0-2A27.335,27.335,0,0,0-193,425.8a27.335,27.335,0,0,0,27.3,27.3,27.271,27.271,0,0,0,27.3-27.3,27.465,27.465,0,0,0-27.3-27.3Z" fill="#fff"/>
        </g>
        <path id="polygon18" d="M-151.4,413.4l-2-2-12.3,12.4-12.4-12.4-2,2,12.3,12.4-12.3,12.3,2,2.1,12.4-12.4,12.3,12.4,2-2.1-12.3-12.3Z"/>
      </g>
      <g id="g30">
        <g id="g26">
          <path id="path22" d="M-52.7,452a26.247,26.247,0,0,1-26.2-26.3,26.225,26.225,0,0,1,26.2-26.2,26.376,26.376,0,0,1,26.3,26.2A26.462,26.462,0,0,1-52.7,452Z" fill="#fff"/>
          <path id="path24" d="M-52.7,400.5a25.308,25.308,0,0,1,25.3,25.2A25.329,25.329,0,0,1-52.7,451,25.244,25.244,0,0,1-78,425.8a25.329,25.329,0,0,1,25.3-25.3m0-2A27.314,27.314,0,0,0-80,425.7,27.335,27.335,0,0,0-52.7,453a27.271,27.271,0,0,0,27.3-27.3,27.25,27.25,0,0,0-27.3-27.2Z" fill="#fff"/>
        </g>
        <path id="path28" d="M-41.2,411.4H-67V440h28.6V411.4Zm0,25.9h-23v-23h23v23Z"/>
      </g>
      <g id="g40">
        <g id="g36">
          <path id="path32" d="M3.7,452a26.332,26.332,0,0,1-26.3-26.3,26.3,26.3,0,0,1,52.6.1A26.247,26.247,0,0,1,3.7,452Z" fill="#fff"/>
          <path id="path34" d="M3.8,400.5a25.25,25.25,0,1,1,0,50.5,25.244,25.244,0,0,1-25.3-25.2A25.329,25.329,0,0,1,3.8,400.5m0-2A27.25,27.25,0,1,0,31,425.8,27.314,27.314,0,0,0,3.8,398.5Z" fill="#fff"/>
        </g>
        <path id="path38" d="M19.7,433.8l-16-27.6-16,27.6-1.6,2.8H21.3Zm-15.9,0H-8.9L3.8,411.9l12.7,21.9Z"/>
      </g>
    </g>
    <g id="g84">
      <g id="g52">
        <g id="g48">
          <path id="path44" d="M-109.2,394.2a26.332,26.332,0,0,1-26.3-26.3,26.247,26.247,0,0,1,26.3-26.2A26.225,26.225,0,0,1-83,367.9,26.376,26.376,0,0,1-109.2,394.2Z"/>
          <path id="path46" d="M-109.2,342.7A25.244,25.244,0,0,1-84,368a25.159,25.159,0,0,1-25.2,25.2A25.308,25.308,0,0,1-134.5,368a25.329,25.329,0,0,1,25.3-25.3m0-2A27.335,27.335,0,0,0-136.5,368a27.271,27.271,0,0,0,27.3,27.3A27.25,27.25,0,0,0-82,368a27.314,27.314,0,0,0-27.2-27.3Z" fill="#fff"/>
        </g>
        <path id="path50" d="M-109.2,349.1A18.949,18.949,0,0,0-128.1,368a18.949,18.949,0,0,0,18.9,18.9A18.949,18.949,0,0,0-90.3,368,18.949,18.949,0,0,0-109.2,349.1Zm0,34.9a15.983,15.983,0,0,1-16-16,15.983,15.983,0,0,1,16-16,16.047,16.047,0,0,1,16,16A16.047,16.047,0,0,1-109.2,384Z" fill="#fff"/>
      </g>
      <g id="g62">
        <g id="g58">
          <path id="path54" d="M-165.8,394.2A26.29,26.29,0,0,1-192,368a26.376,26.376,0,0,1,26.2-26.3A26.4,26.4,0,0,1-139.5,368,26.247,26.247,0,0,1-165.8,394.2Z"/>
          <path id="path56" d="M-165.7,342.7A25.329,25.329,0,0,1-140.4,368a25.244,25.244,0,0,1-25.3,25.2A25.308,25.308,0,0,1-191,368a25.329,25.329,0,0,1,25.3-25.3m0-2A27.271,27.271,0,0,0-193,368a27.335,27.335,0,0,0,27.3,27.3A27.271,27.271,0,0,0-138.4,368a27.4,27.4,0,0,0-27.3-27.3Z" fill="#fff"/>
        </g>
        <path id="polygon60" d="M-151.4,355.6l-2-2-12.3,12.3-12.4-12.3-2,2,12.3,12.3-12.3,12.4,2,2,12.4-12.3,12.3,12.3,2-2-12.3-12.4Z" fill="#fff"/>
      </g>
      <g id="g72">
        <g id="g68">
          <path id="path64" d="M-52.7,394.9a26.225,26.225,0,0,1-26.2-26.2,26.376,26.376,0,0,1,26.2-26.3,26.4,26.4,0,0,1,26.3,26.3A26.311,26.311,0,0,1-52.7,394.9Z"/>
          <path id="path66" d="M-52.7,343.4a25.329,25.329,0,0,1,25.3,25.3,25.18,25.18,0,0,1-25.3,25.2A25.265,25.265,0,0,1-78,368.6a25.18,25.18,0,0,1,25.3-25.2m0-2A27.335,27.335,0,0,0-80,368.7a27.186,27.186,0,0,0,27.3,27.2,27.25,27.25,0,0,0,27.3-27.2,27.4,27.4,0,0,0-27.3-27.3Z" fill="#fff"/>
        </g>
        <path id="path70" d="M-41.2,354.2H-67v28.6h28.6V354.2Zm0,25.9h-23v-23h23v23Z" fill="#fff"/>
      </g>
      <g id="g82">
        <g id="g78">
          <path id="path74" d="M3.7,395.5a26.3,26.3,0,1,1,0-52.6A26.418,26.418,0,0,1,30,369.3,26.247,26.247,0,0,1,3.7,395.5Z"/>
          <path id="path76" d="M3.8,344a25.329,25.329,0,0,1,25.3,25.3A25.265,25.265,0,0,1,3.8,394.6a25.3,25.3,0,1,1,0-50.6m0-2a27.335,27.335,0,0,0-27.3,27.3,27.25,27.25,0,1,0,54.5,0A27.314,27.314,0,0,0,3.8,342Z" fill="#fff"/>
        </g>
        <path id="path80" d="M19.7,377.3l-16-27.6-16,27.6-1.6,2.8H21.3Zm-15.9,0H-8.9L3.8,355.4l12.7,21.9Z" fill="#fff"/>
      </g>
    </g>
  </g>
</svg>

<?xml version="1.0" encoding="UTF-8" standalone="no"?>
<svg
   xmlns:dc="http://purl.org/dc/elements/1.1/"
   xmlns:cc="http://creativecommons.org/ns#"
   xmlns:rdf="http://www.w3.org/1999/02/22-rdf-syntax-ns#"
   xmlns:svg="http://www.w3.org/2000/svg"
   xmlns="http://www.w3.org/2000/svg"
   xmlns:sodipodi="http://sodipodi.sourceforge.net/DTD/sodipodi-0.dtd"
   xmlns:inkscape="http://www.inkscape.org/namespaces/inkscape"
   version="1.1"
   id="Layer_1"
   x="0px"
   y="0px"
   width="224px"
   height="112.3px"
   viewBox="-193 340.7 224 112.3"
   enable-background="new -193 340.7 224 112.3"
   xml:space="preserve"
   sodipodi:docname="face.svgz"><metadata
   id="metadata91"><rdf:RDF><cc:Work
       rdf:about=""><dc:format>image/svg+xml</dc:format><dc:type
         rdf:resource="http://purl.org/dc/dcmitype/StillImage" /></cc:Work></rdf:RDF></metadata><defs
   id="defs89" /><sodipodi:namedview
   pagecolor="#ffffff"
   bordercolor="#666666"
   borderopacity="1"
   objecttolerance="10"
   gridtolerance="10"
   guidetolerance="10"
   inkscape:pageopacity="0"
   inkscape:pageshadow="2"
   inkscape:window-width="640"
   inkscape:window-height="480"
   id="namedview87" />
<g
   id="g42">
	<g
   id="g10">
		<g
   id="g6">
			<path
   fill="#E6E6E6"
   d="M-109.2,452c-14.5,0-26.3-11.8-26.3-26.3s11.8-26.2,26.3-26.2S-83,411.3-83,425.8S-94.8,452-109.2,452z"
   id="path2" />
			<path
   fill="#F0F0F0"
   d="M-109.2,400.5c13.9,0,25.3,11.3,25.3,25.2S-95.2,451-109.2,451s-25.3-11.3-25.3-25.2     S-123.2,400.5-109.2,400.5 M-109.2,398.5c-15,0-27.3,12.2-27.3,27.2s12.2,27.3,27.3,27.3S-82,440.8-82,425.8     S-94.2,398.5-109.2,398.5L-109.2,398.5z"
   id="path4" />
		</g>
		<path
   fill="#009898"
   d="M-109.2,406.9c-10.4,0-18.9,8.5-18.9,18.9s8.5,18.9,18.9,18.9s18.9-8.5,18.9-18.9    C-90.4,415.3-98.8,406.9-109.2,406.9z M-109.2,441.8c-8.9,0-16-7.2-16-16c0-8.9,7.2-16,16-16s16,7.2,16,16    C-93.2,434.6-100.4,441.8-109.2,441.8z"
   id="path8" />
	</g>
	<g
   id="g20">
		<g
   id="g16">
			<path
   fill="#E6E6E6"
   d="M-165.8,452c-14.4,0-26.2-11.7-26.2-26.2s11.8-26.2,26.3-26.2s26.3,11.8,26.3,26.2S-151.3,452-165.8,452z     "
   id="path12" />
			<path
   fill="#F0F0F0"
   d="M-165.7,400.5c13.9,0,25.3,11.3,25.3,25.2s-11.3,25.3-25.3,25.3s-25.3-11.3-25.3-25.2     S-179.7,400.5-165.7,400.5 M-165.7,398.5c-15.1,0-27.3,12.3-27.3,27.3s12.2,27.3,27.3,27.3c15.1,0,27.3-12.2,27.3-27.3     C-138.5,410.8-150.7,398.5-165.7,398.5L-165.7,398.5z"
   id="path14" />
		</g>
		<polygon
   fill="#824E20"
   points="-151.4,413.4 -153.4,411.4 -165.7,423.8 -178.1,411.4 -180.1,413.4 -167.8,425.8 -180.1,438.1     -178.1,440.2 -165.7,427.8 -153.4,440.2 -151.4,438.1 -163.7,425.8   "
   id="polygon18" />
	</g>
	<g
   id="g30">
		<g
   id="g26">
			<path
   fill="#E6E6E6"
   d="M-52.7,452c-14.5,0-26.2-11.8-26.2-26.3s11.8-26.2,26.2-26.2s26.3,11.8,26.3,26.2S-38.3,452-52.7,452z"
   id="path22" />
			<path
   fill="#F0F0F0"
   d="M-52.7,400.5c13.9,0,25.3,11.3,25.3,25.2S-38.7,451-52.7,451S-78,439.7-78,425.8S-66.7,400.5-52.7,400.5      M-52.7,398.5c-15,0-27.3,12.2-27.3,27.2S-67.8,453-52.7,453s27.3-12.2,27.3-27.3S-37.7,398.5-52.7,398.5L-52.7,398.5z"
   id="path24" />
		</g>
		<path
   fill="#079647"
   d="M-41.2,411.4h-23H-67v2.8v23v2.8h2.8h23h2.8v-2.8v-23v-2.8H-41.2z M-41.2,437.3h-23v-23h23V437.3z"
   id="path28" />
	</g>
	<g
   id="g40">
		<g
   id="g36">
			<path
   fill="#E6E6E6"
   d="M3.7,452c-14.5,0-26.3-11.8-26.3-26.3s11.8-26.2,26.3-26.2S30,411.3,30,425.8S18.2,452,3.7,452z"
   id="path32" />
			<path
   fill="#F0F0F0"
   d="M3.8,400.5c13.9,0,25.3,11.3,25.3,25.2S17.8,451,3.8,451s-25.3-11.3-25.3-25.2S-10.2,400.5,3.8,400.5      M3.8,398.5c-15,0-27.3,12.2-27.3,27.2S-11.3,453,3.8,453S31,440.8,31,425.8S18.8,398.5,3.8,398.5L3.8,398.5z"
   id="path34" />
		</g>
		<path
   fill="#BE1E5F"
   d="M19.7,433.8l-16-27.6l-16,27.6l-1.6,2.8h3.3H3.7H18h3.3L19.7,433.8z M3.8,433.8H-8.9l12.7-21.9l12.7,21.9    H3.8z"
   id="path38" />
	</g>
</g>
<g
   id="g84">
	<g
   id="g52">
		<g
   id="g48">
			<path
   fill="#1A1A1A"
   d="M-109.2,394.2c-14.5,0-26.3-11.8-26.3-26.3s11.8-26.2,26.3-26.2S-83,353.5-83,367.9     C-83,382.3-94.8,394.2-109.2,394.2z"
   id="path44" />
			<path
   fill="#0F0F0F"
   d="M-109.2,342.7C-95.3,342.7-84,354-84,368s-11.3,25.2-25.2,25.2s-25.3-11.3-25.3-25.2     C-134.5,354.1-123.2,342.7-109.2,342.7 M-109.2,340.7c-15,0-27.3,12.2-27.3,27.3c0,15.1,12.2,27.3,27.3,27.3S-82,383-82,368     S-94.2,340.7-109.2,340.7L-109.2,340.7z"
   id="path46" />
		</g>
		<path
   fill="#F16667"
   d="M-109.2,349.1c-10.4,0-18.9,8.5-18.9,18.9c0,10.4,8.5,18.9,18.9,18.9s18.9-8.5,18.9-18.9    C-90.4,357.5-98.8,349.1-109.2,349.1z M-109.2,384c-8.9,0-16-7.2-16-16c0-8.9,7.2-16,16-16s16,7.2,16,16    C-93.2,376.8-100.4,384-109.2,384z"
   id="path50" />
	</g>
	<g
   id="g62">
		<g
   id="g58">
			<path
   fill="#1A1A1A"
   d="M-165.8,394.2c-14.4,0-26.2-11.8-26.2-26.2c0-14.4,11.8-26.3,26.2-26.3c14.4,0,26.3,11.8,26.3,26.3     S-151.3,394.2-165.8,394.2z"
   id="path54" />
			<path
   fill="#0F0F0F"
   d="M-165.7,342.7c13.9,0,25.3,11.3,25.3,25.3s-11.4,25.2-25.3,25.2c-13.9,0-25.3-11.3-25.3-25.2     C-191,354.1-179.7,342.7-165.7,342.7 M-165.7,340.7c-15.1,0-27.3,12.2-27.3,27.3c0,15,12.2,27.3,27.3,27.3     c15.1,0,27.3-12.2,27.3-27.3C-138.5,352.9-150.7,340.7-165.7,340.7L-165.7,340.7z"
   id="path56" />
		</g>
		<polygon
   fill="#7FB1DF"
   points="-151.4,355.6 -153.4,353.6 -165.7,365.9 -178.1,353.6 -180.1,355.6 -167.8,367.9 -180.1,380.3     -178.1,382.3 -165.7,370 -153.4,382.3 -151.4,380.3 -163.7,367.9   "
   id="polygon60" />
	</g>
	<g
   id="g72">
		<g
   id="g68">
			<path
   fill="#1A1A1A"
   d="M-52.7,394.9c-14.5,0-26.2-11.8-26.2-26.2s11.8-26.3,26.2-26.3s26.3,11.8,26.3,26.3     S-38.3,394.9-52.7,394.9z"
   id="path64" />
			<path
   fill="#0F0F0F"
   d="M-52.7,343.4c13.9,0,25.3,11.3,25.3,25.3s-11.3,25.2-25.3,25.2S-78,382.6-78,368.6     S-66.7,343.4-52.7,343.4 M-52.7,341.4c-15,0-27.3,12.2-27.3,27.3s12.2,27.2,27.3,27.2s27.3-12.2,27.3-27.2     S-37.7,341.4-52.7,341.4L-52.7,341.4z"
   id="path66" />
		</g>
		<path
   fill="#CB79B1"
   d="M-41.2,354.2h-23H-67v2.8v23v2.8h2.8h23h2.8V380v-23v-2.8C-38.4,354.2-41.2,354.2-41.2,354.2z     M-41.2,380.1h-23v-23h23V380.1z"
   id="path70" />
	</g>
	<g
   id="g82">
		<g
   id="g78">
			<path
   fill="#1A1A1A"
   d="M3.7,395.5c-14.5,0-26.3-11.8-26.3-26.3s11.8-26.3,26.3-26.3S30,354.8,30,369.3S18.2,395.5,3.7,395.5z"
   id="path74" />
			<path
   fill="#0F0F0F"
   d="M3.8,344c13.9,0,25.3,11.3,25.3,25.3s-11.3,25.3-25.3,25.3s-25.3-11.3-25.3-25.3S-10.2,344,3.8,344      M3.8,342c-15,0-27.3,12.2-27.3,27.3s12.2,27.3,27.3,27.3S31,384.3,31,369.3S18.8,342,3.8,342L3.8,342z"
   id="path76" />
		</g>
		<path
   fill="#66C194"
   d="M19.7,377.3l-16-27.6l-16,27.6l-1.6,2.8h3.3H3.7H18h3.3L19.7,377.3z M3.8,377.3H-8.9l12.7-21.9l12.7,21.9    H3.8z"
   id="path80" />
	</g>
</g>
</svg>
